addons/gdquest_practice_framework/assets/gdquest_logo_gear.svg

<?xml version="1.0" encoding="UTF-8" standalone="no"?>
<svg
   width="20.0905"
   height="19.999987"
   viewBox="0 0 20.0905 19.999987"
   fill="none"
   version="1.1"
   id="svg3"
   sodipodi:docname="gdquest_logo_gear.svg"
   inkscape:version="1.3 (0e150ed, 2023-07-21)"
   xmlns:inkscape="http://www.inkscape.org/namespaces/inkscape"
   xmlns:sodipodi="http://sodipodi.sourceforge.net/DTD/sodipodi-0.dtd"
   xmlns="http://www.w3.org/2000/svg"
   xmlns:svg="http://www.w3.org/2000/svg">
  <sodipodi:namedview
     id="namedview3"
     pagecolor="#ffffff"
     bordercolor="#999999"
     borderopacity="1"
     inkscape:showpageshadow="2"
     inkscape:pageopacity="0"
     inkscape:pagecheckerboard="0"
     inkscape:deskcolor="#d1d1d1"
     inkscape:zoom="22.815789"
     inkscape:cx="10.519031"
     inkscape:cy="10.014994"
     inkscape:window-width="1920"
     inkscape:window-height="1043"
     inkscape:window-x="1920"
     inkscape:window-y="0"
     inkscape:window-maximized="1"
     inkscape:current-layer="svg3" />
  <g
     clip-path="url(#clip0_48_70)"
     id="g3"
     transform="translate(0,-8.9999997)">
    <path
       d="M 7.53612,9.00058 C 7.45063,8.99742 7.36516,9.00718 7.28258,9.02953 L 6.3194,9.28789 C 2.6043,10.2845 0.00459445,13.6699 1.118e-6,17.5178 c -1.490666e-6,9e-4 -1.490666e-6,0.0018 0,0.0028 v 0.0027 0.0028 c 0,4.2259 3.129748882,7.7952 7.238388882,8.4241 l 0.00919,0.0822 0.12907,1.2942 c 0.01105,0.1114 0.04396,0.2195 0.09685,0.3182 0.0529,0.0987 0.12473,0.1859 0.21139,0.2568 0.08665,0.0708 0.18643,0.1239 0.29361,0.1561 0.10719,0.0322 0.21967,0.0429 0.33101,0.0316 l 2.95889,-0.3016 0.6295,0.8634 c 0.1014,0.1388 0.2424,0.2436 0.4045,0.3007 0.1621,0.057 0.3377,0.0636 0.5036,0.0189 l 0.9652,-0.2583 c 3.715,-0.9966 6.3144,-4.382 6.3193,-8.2299 0,-9e-4 0,-0.0019 0,-0.0028 V 20.477 20.4742 c 0,-4.2267 -3.1324,-7.7942 -7.2417,-8.4223 L 12.8387,11.9698 12.7096,10.6742 C 12.6986,10.5628 12.6658,10.4546 12.6129,10.3558 12.56,10.2571 12.4882,10.1698 12.4015,10.0989 12.3149,10.028 12.2151,9.97489 12.1079,9.94265 12.0007,9.91041 11.8881,9.89966 11.7768,9.91101 L 8.81788,10.2145 8.18834,9.34916 C 8.11272,9.24568 8.01471,9.16063 7.90163,9.10035 7.78855,9.04007 7.66332,9.00613 7.53529,9.00105 Z m -0.03307,0.85106 0.91844,1.25806 3.44311,-0.3514 0.2066,2.0621 h 0.0101 c 4.013,0.2712 7.1606,3.6298 7.1606,7.6538 v 0.0028 0.0027 c -0.0092,3.4654 -2.3438,6.5122 -5.6894,7.4097 l -0.9652,0.2584 -0.9189,-1.2566 -3.44267,0.35 -0.2066,-2.0602 H 8.00903 C 3.99602,24.9096 0.849912,21.5492 0.849912,17.5252 V 17.5225 17.5197 C 0.859099,14.0543 3.19369,11.0075 6.53932,10.11 Z"
       fill="#ffffff"
       id="path1" />
    <path
       d="m 6.8934,11.5461 -0.815,0.2995 0.10105,1.3492 C 5.88696,13.3554 5.61349,13.5433 5.36187,13.755 L 4.10125,13.2321 3.54833,13.8908 4.30757,14.9847 C 4.13303,15.2726 3.98844,15.5785 3.87628,15.8985 L 2.54445,16.06 2.40234,16.9008 3.60299,17.4695 c 0,0.1684 0.00918,0.3385 0.02388,0.5097 0.01745,0.1711 0.04317,0.3395 0.07716,0.5044 l -1.06487,0.787 0.30655,0.7972 1.33816,-0.0954 c 0.17371,0.2926 0.37636,0.5654 0.60473,0.8145 L 4.36177,22.0043 5.0342,22.545 6.16668,21.7922 c 0.28882,0.1598 0.59481,0.2918 0.91366,0.3937 l 0.16912,1.3427 0.85873,0.1391 0.61254,-1.24 c 0.15957,-0.0027 0.32042,-0.0122 0.4821,-0.03 l 2.9e-4,6e-4 2.34288,-0.2252 -0.3338,-3.3299 -2.34318,0.2248 0.10417,1.0364 -3.5e-4,-4e-4 C 7.49863,20.2457 6.18637,19.1905 6.0416,17.7473 5.89691,16.3042 6.97473,15.0196 8.44876,14.8779 v -3e-4 l 2.34294,-0.2251 -0.23,-2.2942 -2.34296,0.2251 C 8.0566,12.5966 7.89713,12.6177 7.73995,12.6457 Z"
       fill="#ffffff"
       id="path2" />
    <path
       d="m 11.9828,14.3308 -0.6127,1.24 c -0.1594,0.0027 -0.3202,0.0123 -0.482,0.03 l -2.34318,0.2251 0.22993,2.294 2.34325,-0.2252 c 0.3505,-0.0337 0.7044,5e-4 1.0414,0.1007 0.337,0.1002 0.6506,0.2644 0.9228,0.4833 0.2722,0.2188 0.4977,0.488 0.6637,0.7922 0.1659,0.3042 0.269,0.6374 0.3034,0.9806 0.0694,0.6931 -0.1453,1.3847 -0.5968,1.9228 -0.4515,0.5381 -1.1028,0.8786 -1.8106,0.9465 l -2.34307,0.2261 0.23002,2.2939 2.34325,-0.2251 c 0.1621,-0.0138 0.3217,-0.0351 0.4784,-0.0627 l 0.8481,1.0994 0.8142,-0.2995 -0.1003,-1.3492 c 0.2923,-0.1606 0.5657,-0.3485 0.8171,-0.5602 l 1.2611,0.5229 0.5525,-0.6588 -0.7589,-1.0938 c 0.1746,-0.2879 0.3196,-0.594 0.432,-0.9141 l 1.3309,-0.1612 0.1425,-0.8408 -1.201,-0.5687 c 0.0092,-0.1684 -0.0092,-0.3385 -0.0239,-0.5097 -0.0174,-0.1711 -0.0431,-0.3395 -0.0771,-0.5044 l 1.0649,-0.787 -0.3065,-0.7975 -1.3377,0.0957 c -0.1738,-0.2926 -0.3767,-0.5654 -0.6051,-0.8145 l 0.5267,-1.2174 -0.6723,-0.5407 -1.1328,0.7528 c -0.2889,-0.1598 -0.5946,-0.2918 -0.9135,-0.3937 l -0.1696,-1.3427 z"
       fill="#ffffff"
       id="path3" />
  </g>
  <defs
     id="defs3">
    <clipPath
       id="clip0_48_70">
      <rect
         width="20.0905"
         height="38"
         fill="#ffffff"
         id="rect3"
         x="0"
         y="0" />
    </clipPath>
  </defs>
</svg>

<svg width="21" height="38" viewBox="0 0 21 38" fill="none" xmlns="http://www.w3.org/2000/svg">
<g clip-path="url(#clip0_48_70)">
<path d="M7.53612 9.00058C7.45063 8.99742 7.36516 9.00718 7.28258 9.02953L6.3194 9.28789C2.6043 10.2845 0.00459445 13.6699 1.118e-06 17.5178C-3.72666e-07 17.5187 -3.72666e-07 17.5196 1.118e-06 17.5206V17.5233V17.5261C1.118e-06 21.752 3.12975 25.3213 7.23839 25.9502L7.24758 26.0324L7.37665 27.3266C7.3877 27.438 7.42061 27.5461 7.4735 27.6448C7.5264 27.7435 7.59823 27.8307 7.68489 27.9016C7.77154 27.9724 7.87132 28.0255 7.9785 28.0577C8.08569 28.0899 8.19817 28.1006 8.30951 28.0893L11.2684 27.7877L11.8979 28.6511C11.9993 28.7899 12.1403 28.8947 12.3024 28.9518C12.4645 29.0088 12.6401 29.0154 12.806 28.9707L13.7712 28.7124C17.4862 27.7158 20.0856 24.3304 20.0905 20.4825C20.0905 20.4816 20.0905 20.4806 20.0905 20.4797V20.477V20.4742C20.0905 16.2475 16.9581 12.68 12.8488 12.0519L12.8387 11.9698L12.7096 10.6742C12.6986 10.5628 12.6658 10.4546 12.6129 10.3558C12.56 10.2571 12.4882 10.1698 12.4015 10.0989C12.3149 10.028 12.2151 9.97489 12.1079 9.94265C12.0007 9.91041 11.8881 9.89966 11.7768 9.91101L8.81788 10.2145L8.18834 9.34916C8.11272 9.24568 8.01471 9.16063 7.90163 9.10035C7.78855 9.04007 7.66332 9.00613 7.53529 9.00105L7.53612 9.00058ZM7.50305 9.85164L8.42149 11.1097L11.8646 10.7583L12.0712 12.8204H12.0813C16.0943 13.0916 19.2419 16.4502 19.2419 20.4742V20.477V20.4797C19.2327 23.9451 16.8981 26.9919 13.5525 27.8894L12.5873 28.1478L11.6684 26.8912L8.22573 27.2412L8.01913 25.181H8.00903C3.99602 24.9096 0.849912 21.5492 0.849912 17.5252V17.5225V17.5197C0.859099 14.0543 3.19369 11.0075 6.53932 10.11L7.50305 9.85164Z" fill="white"/>
<path d="M6.8934 11.5461L6.0784 11.8456L6.17945 13.1948C5.88696 13.3554 5.61349 13.5433 5.36187 13.755L4.10125 13.2321L3.54833 13.8908L4.30757 14.9847C4.13303 15.2726 3.98844 15.5785 3.87628 15.8985L2.54445 16.06L2.40234 16.9008L3.60299 17.4695C3.60299 17.6379 3.61217 17.808 3.62687 17.9792C3.64432 18.1503 3.67004 18.3187 3.70403 18.4836L2.63916 19.2706L2.94571 20.0678L4.28387 19.9724C4.45758 20.265 4.66023 20.5378 4.8886 20.7869L4.36177 22.0043L5.0342 22.545L6.16668 21.7922C6.4555 21.952 6.76149 22.084 7.08034 22.1859L7.24946 23.5286L8.10819 23.6677L8.72073 22.4277C8.8803 22.425 9.04115 22.4155 9.20283 22.3977L9.20312 22.3983L11.546 22.1731L11.2122 18.8432L8.86902 19.068L8.97319 20.1044L8.97284 20.104C7.49863 20.2457 6.18637 19.1905 6.0416 17.7473C5.89691 16.3042 6.97473 15.0196 8.44876 14.8779V14.8776L10.7917 14.6525L10.5617 12.3583L8.21874 12.5834C8.0566 12.5966 7.89713 12.6177 7.73995 12.6457L6.8934 11.5461Z" fill="white"/>
<path d="M11.9828 14.3308L11.3701 15.5708C11.2107 15.5735 11.0499 15.5831 10.8881 15.6008L8.54492 15.8259L8.77485 18.1199L11.1181 17.8947C11.4686 17.861 11.8225 17.8952 12.1595 17.9954C12.4965 18.0956 12.8101 18.2598 13.0823 18.4787C13.3545 18.6975 13.58 18.9667 13.746 19.2709C13.9119 19.5751 14.015 19.9083 14.0494 20.2515C14.1188 20.9446 13.9041 21.6362 13.4526 22.1743C13.0011 22.7124 12.3498 23.0529 11.642 23.1208L9.29893 23.3469L9.52895 25.6408L11.8722 25.4157C12.0343 25.4019 12.1939 25.3806 12.3506 25.353L13.1987 26.4524L14.0129 26.1529L13.9126 24.8037C14.2049 24.6431 14.4783 24.4552 14.7297 24.2435L15.9908 24.7664L16.5433 24.1076L15.7844 23.0138C15.959 22.7259 16.104 22.4198 16.2164 22.0997L17.5473 21.9385L17.6898 21.0977L16.4888 20.529C16.498 20.3606 16.4796 20.1905 16.4649 20.0193C16.4475 19.8482 16.4218 19.6798 16.3878 19.5149L17.4527 18.7279L17.1462 17.9304L15.8085 18.0261C15.6347 17.7335 15.4318 17.4607 15.2034 17.2116L15.7301 15.9942L15.0578 15.4535L13.925 16.2063C13.6361 16.0465 13.3304 15.9145 13.0115 15.8126L12.8419 14.4699L11.9828 14.3308Z" fill="white"/>
</g>
<defs>
<clipPath id="clip0_48_70">
<rect width="20.0905" height="38" fill="white"/>
</clipPath>
</defs>
</svg>
